X:1
T:Title
%%score { ( 1 3 4 ) | ( 2 5 ) }
L:1/8
Q:1/4=100
M:6/8
K:D
V:1 treble nm="Grand Piano"
V:3 treble 
V:4 treble 
V:2 bass 
V:5 bass 
V:1
 F>FF FED | [FA]>[FA][FA] [FA][EG][DF] | [CE]>[CE][CE] [CE][DF][EG] | [GB][FA][EG] F3 | F>FF FED | %5
w: William~Kirkpatrick * * * * *|||||
 [FA]>[FA][FA] [FA][EG][DF] | [CE]>[CE][CE] [CE][CA][EG] | [DF][DF][CE] D3 | %8
w: |||
 [FA]>[FA][FA] [GB][FA][DF] | [Fd]>[Fd][Fd] edB | [FA][FA][FA] [GB][FA][DF] | %11
w: |||
[M:13/16] [DF]3/2.[DE]>[CA]-[CA]/-[CA]/-[CA]-<[CA] |[M:3/4] [FA]>[FA] [FA][GB] [FA][DF] | %13
w: ||
 [Fd]>[Fd] [Fd]e dB | A>A Ac Bc | [Fd]6 |] %16
w: |||
V:2
 [D,A,D]>[D,A,D][D,A,D] [D,A,D][D,G,C][D,F,] | [D,D]>[D,D][D,D] [D,D][D,A,][D,A,] | %2
 [A,,A,]>[A,,A,][A,,A,] [A,,A,][A,,A,][A,,A,] | [A,,A,][A,,A,][A,,A,] [D,A,D]3 | %4
 [D,A,D]>[D,A,D][D,A,D] [D,A,D][D,G,C][D,F,] | [D,D]>[D,D][D,D] [D,D][D,A,][D,A,] | %6
 [A,,A,]>[A,,A,][A,,A,] [A,,A,][A,,A,][A,,A,] | [A,,A,][A,,A,][A,,G,] [D,F,]3 | %8
 [D,D]>[D,D][D,D] [D,D][D,D][D,A,] | [D,A,]>[D,A,][D,A,][K:treble] [G,B,G][G,B,G][G,DG] | %10
 [D,D][D,D][D,D] [D,D][D,D][D,A,] | %11
[M:13/16] [B,,^G,]>[B,,G,][B,,G,]/-(3:2:2[B,,G,]/[A,C]/4 z/ z/ z G3/2 | %12
[M:3/4] [D,D]>[D,D] [D,D][D,D] [D,D][D,A,] | [D,A,]>[D,A,] [D,A,][K:treble][G,B,G] [G,B,G][G,DG] | %14
 [A,DF]>[A,DF] [A,DF][A,EG] [A,EG][A,G] | [D,A,]6 |] %16
V:3
 x6 | x6 | x6 | x6 | x6 | x6 | x6 | x6 | x6 | x6 | x6 |[M:13/16] z/ z/ z/ z E/-E-<E z/ z | %12
[M:3/4] x6 | x6 | x6 | x6 |] %16
V:4
 x6 | x6 | x6 | x6 | x6 | x6 | x6 | x6 | x6 | x6 | x6 |[M:13/16] z/ z/ z D z/ z/ z/ z/ z/ z | %12
[M:3/4] x6 | x6 | x6 | x6 |] %16
V:5
 x6 | x6 | x6 | x6 | x6 | x6 | x6 | x6 | x6 | x3[K:treble] x3 | x6 | %11
[M:13/16] z/ z/ z/ z/ z A,,/-A,,/-A,,/-A,,-<A,, |[M:3/4] x6 | x3[K:treble] x3 | x6 | x6 |] %16

